X: 1386
T: Dognobbler
C:Bob Rummery, Sorrento, WA
B: australian traditional tunes wiki
M:6/8
L:1/8
R: Jig
Q: 3/8=100
K:D
V:1 
|:"D"dcdF3|"A7"Eed cBA|"D"FGA dcd|"Em"Bed "A7"cBA|
"D"dcdF3|"A7"Eed cBA|"D"FGA dcd|1"A7"edc "D"d3:|2"A7"edc "D"d2a||
|:"D"aba fed|"Em"Bed cBA|"D"FGA dcd|"Em"Bed "A7"cBA|
"D"aba fed|"Em"Bed cBA|"D"FGA dcd|1"A7"edc "D"d2a:|2"A7"edc "D"d3||
% abcbook-tune_id 6342d53a6575ef929efdf878


% abcbook-boost 0
% abcbook-tablature 
% abcbook-transpose 
% abcbook-lastupdated 1665324362470
% abcbook-soundfonts 
% abcbook-repeats 1
% NFF Book 2008

